svg_80x80/django.svg

<svg viewBox="0 0 80 80" xmlns="http://www.w3.org/2000/svg">
<rect width="100%" height="100%" fill="#113228"/>
<path fill-rule="evenodd" clip-rule="evenodd" d="M45.4508 12H35.8172V26.5496C34.521 26.2246 33.189 26.0647 31.8527 26.0738C29.7048 25.9019 27.5448 26.1903 25.5173 26.9198C23.4897 27.6493 21.6411 28.8031 20.095 30.3041C18.549 31.8051 17.3411 33.6188 16.552 35.6239C15.7629 37.6291 15.4108 39.7795 15.5192 41.9316C15.5192 51.9617 21.5452 57.1948 33.1214 57.1948C37.265 57.1802 41.3963 56.7418 45.4508 55.8865V12ZM32.7249 33.6063C33.8437 33.6381 34.9465 33.8802 35.9758 34.3199L35.9361 49.2262C34.8474 49.3931 33.747 49.4727 32.6456 49.4641C31.5976 49.5675 30.5399 49.4296 29.5534 49.0609C28.567 48.6922 27.678 48.1026 26.9547 47.3372C26.2314 46.5718 25.693 45.651 25.3806 44.6452C25.0683 43.6396 24.9904 42.5757 25.1528 41.5352C25.0413 40.4973 25.1576 39.4475 25.4935 38.4592C25.8295 37.4708 26.3771 36.5677 27.098 35.8127C27.819 35.0578 28.696 34.4693 29.6678 34.0882C30.6397 33.7071 31.683 33.5426 32.7249 33.6063Z" fill="white"/>
<path d="M60.4758 48.6316V26.6685H51.0404V45.3807C51.0404 53.6268 50.6043 56.7587 49.2564 59.4545C47.6298 62.4233 44.9601 64.6834 41.7636 65.7977L50.5647 70C53.8715 68.6346 56.5937 66.151 58.2557 62.9829C60.1868 58.4608 60.9502 53.5258 60.4758 48.6316Z" fill="white"/>
<path d="M60.4758 12.0793H51.0404V21.7922H60.4758V12.0793Z" fill="white"/>
</svg>

<svg xmlns="http://www.w3.org/2000/svg" viewBox="0 0 80 80">
  <rect width="100%" height="100%" fill="#113228"/>
  <path fill="#fff" fill-rule="evenodd" d="M45.5 12h-9.7v14.5c-1.3-.3-2.6-.4-4-.4a15.1 15.1 0 0 0-16.3 15.8c0 10 6 15.3 17.6 15.3 4.2 0 8.3-.5 12.4-1.3V12ZM32.7 33.6a9 9 0 0 1 3.3.7v15l-3.4.2a6.9 6.9 0 0 1-7.4-8 7.2 7.2 0 0 1 7.5-7.9Z" clip-rule="evenodd"/>
  <path fill="#fff" d="M60.5 48.6v-22H51v18.8c0 8.2-.4 11.4-1.7 14-1.7 3-4.3 5.3-7.5 6.4l8.8 4.2c3.3-1.4 6-3.8 7.7-7 1.9-4.5 2.7-9.5 2.2-14.4ZM60.5 12H51v9.8h9.5V12Z"/>
</svg>
